X:1690
T:Duke John
R:March
O:England
L:1/8
M:2/4
%%ID:00000d09
F: http://www.leeds.ac.uk/music/Info/RRTuneBk/gettune/00000d09.abc
K:G
D | \
G>F GD | G>F GB | AD FA | c/B/A/G/ FA | \
G>F GD | G>F GB | Ac FA | G3 ::
B |\
d>c Bd | G3 c | BG Bd | c/B/A/G/ FA | \
GD B>G | EG c2 | FA DF | G3 :|


